public/images/sw-skills/aws.svg

<svg xmlns="http://www.w3.org/2000/svg" xml:space="preserve" style="fill-rule:evenodd;clip-rule:evenodd;stroke-linejoin:round;stroke-miterlimit:2" viewBox="0 0 2400 1600"><path d="M0 0h2400v1600H0z" style="fill:#002e4f"/><path d="M86.4 66.4c0 3.7.4 6.7 1.1 8.9.8 2.2 1.8 4.6 3.2 7.2.5.8.7 1.6.7 2.3 0 1-.6 2-1.9 3L83.2 92c-.9.6-1.8.9-2.6.9-1 0-2-.5-3-1.4-1.4-1.5-2.6-3.1-3.6-4.7-1-1.7-2-3.6-3.1-5.9Q59.2 94.7 41.5 94.7c-8.4 0-15.1-2.4-20-7.2s-7.4-11.2-7.4-19.2c0-8.5 3-15.4 9.1-20.6s14.2-7.8 24.5-7.8c3.4 0 6.9.3 10.6.8s7.5 1.3 11.5 2.2v-7.3c0-7.6-1.6-12.9-4.7-16-3.2-3.1-8.6-4.6-16.3-4.6-3.5 0-7.1.4-10.8 1.3s-7.3 2-10.8 3.4c-1.6.7-2.8 1.1-3.5 1.3s-1.2.3-1.6.3c-1.4 0-2.1-1-2.1-3.1v-4.9c0-1.6.2-2.8.7-3.5s1.4-1.4 2.8-2.1Q28.75 5 36.1 3.2C41 1.9 46.2 1.3 51.7 1.3c11.9 0 20.6 2.7 26.2 8.1 5.5 5.4 8.3 13.6 8.3 24.6v32.4zM45.8 81.6c3.3 0 6.7-.6 10.3-1.8s6.8-3.4 9.5-6.4c1.6-1.9 2.8-4 3.4-6.4s1-5.3 1-8.7v-4.2c-2.9-.7-6-1.3-9.2-1.7s-6.3-.6-9.4-.6c-6.7 0-11.6 1.3-14.9 4s-4.9 6.5-4.9 11.5c0 4.7 1.2 8.2 3.7 10.6 2.4 2.5 5.9 3.7 10.5 3.7m80.3 10.8c-1.8 0-3-.3-3.8-1-.8-.6-1.5-2-2.1-3.9L96.7 10.2c-.6-2-.9-3.3-.9-4 0-1.6.8-2.5 2.4-2.5h9.8c1.9 0 3.2.3 3.9 1 .8.6 1.4 2 2 3.9l16.8 66.2 15.6-66.2c.5-2 1.1-3.3 1.9-3.9s2.2-1 4-1h8c1.9 0 3.2.3 4 1 .8.6 1.5 2 1.9 3.9l15.8 67 17.3-67c.6-2 1.3-3.3 2-3.9.8-.6 2.1-1 3.9-1h9.3c1.6 0 2.5.8 2.5 2.5 0 .5-.1 1-.2 1.6s-.3 1.4-.7 2.5l-24.1 77.3q-.9 3-2.1 3.9c-.8.6-2.1 1-3.8 1h-8.6c-1.9 0-3.2-.3-4-1s-1.5-2-1.9-4L156 23l-15.4 64.4c-.5 2-1.1 3.3-1.9 4s-2.2 1-4 1zm128.5 2.7c-5.2 0-10.4-.6-15.4-1.8s-8.9-2.5-11.5-4c-1.6-.9-2.7-1.9-3.1-2.8s-.6-1.9-.6-2.8v-5.1c0-2.1.8-3.1 2.3-3.1q.9 0 1.8.3c.6.2 1.5.6 2.5 1 3.4 1.5 7.1 2.7 11 3.5 4 .8 7.9 1.2 11.9 1.2 6.3 0 11.2-1.1 14.6-3.3s5.2-5.4 5.2-9.5c0-2.8-.9-5.1-2.7-7s-5.2-3.6-10.1-5.2L246 52c-7.3-2.3-12.7-5.7-16-10.2-3.3-4.4-5-9.3-5-14.5q0-6.3 2.7-11.1c1.8-3.2 4.2-6 7.2-8.2 3-2.3 6.4-4 10.4-5.2s8.2-1.7 12.6-1.7c2.2 0 4.5.1 6.7.4 2.3.3 4.4.7 6.5 1.1 2 .5 3.9 1 5.7 1.6q2.7.9 4.2 1.8c1.4.8 2.4 1.6 3 2.5q.9 1.2.9 3.3v4.7c0 2.1-.8 3.2-2.3 3.2-.8 0-2.1-.4-3.8-1.2q-8.55-3.9-19.2-3.9c-5.7 0-10.2.9-13.3 2.8s-4.7 4.8-4.7 8.9c0 2.8 1 5.2 3 7.1s5.7 3.8 11 5.5l14.2 4.5c7.2 2.3 12.4 5.5 15.5 9.6s4.6 8.8 4.6 14c0 4.3-.9 8.2-2.6 11.6-1.8 3.4-4.2 6.4-7.3 8.8-3.1 2.5-6.8 4.3-11.1 5.6-4.5 1.4-9.2 2.1-14.3 2.1" style="fill:#fff;fill-rule:nonzero" transform="translate(571.276 423.601)scale(4.13625)"/><path d="M273.5 143.7c-32.9 24.3-80.7 37.2-121.8 37.2-57.6 0-109.5-21.3-148.7-56.7-3.1-2.8-.3-6.6 3.4-4.4 42.4 24.6 94.7 39.5 148.8 39.5 36.5 0 76.6-7.6 113.5-23.2 5.5-2.5 10.2 3.6 4.8 7.6" style="fill:#f90" transform="translate(571.276 423.601)scale(4.13625)"/><path d="M287.2 128.1c-4.2-5.4-27.8-2.6-38.5-1.3-3.2.4-3.7-2.4-.8-4.5 18.8-13.2 49.7-9.4 53.3-5 3.6 4.5-1 35.4-18.6 50.2-2.7 2.3-5.3 1.1-4.1-1.9 4-9.9 12.9-32.2 8.7-37.5" style="fill:#f90" transform="translate(571.276 423.601)scale(4.13625)"/></svg>

<?xml version="1.0" encoding="UTF-8" standalone="no"?>
<!DOCTYPE svg PUBLIC "-//W3C//DTD SVG 1.1//EN" "http://www.w3.org/Graphics/SVG/1.1/DTD/svg11.dtd">
<svg width="100%" height="100%" viewBox="0 0 2400 1600" version="1.1" xmlns="http://www.w3.org/2000/svg" xmlns:xlink="http://www.w3.org/1999/xlink" xml:space="preserve" xmlns:serif="http://www.serif.com/" style="fill-rule:evenodd;clip-rule:evenodd;stroke-linejoin:round;stroke-miterlimit:2;">
    <rect x="0" y="0" width="2400" height="1600" style="fill:rgb(0,46,79);"/>
    <g transform="matrix(4.13625,0,0,4.13625,571.276,423.601)">
        <path d="M86.4,66.4C86.4,70.1 86.8,73.1 87.5,75.3C88.3,77.5 89.3,79.9 90.7,82.5C91.2,83.3 91.4,84.1 91.4,84.8C91.4,85.8 90.8,86.8 89.5,87.8L83.2,92C82.3,92.6 81.4,92.9 80.6,92.9C79.6,92.9 78.6,92.4 77.6,91.5C76.2,90 75,88.4 74,86.8C73,85.1 72,83.2 70.9,80.9C63.1,90.1 53.3,94.7 41.5,94.7C33.1,94.7 26.4,92.3 21.5,87.5C16.6,82.7 14.1,76.3 14.1,68.3C14.1,59.8 17.1,52.9 23.2,47.7C29.3,42.5 37.4,39.9 47.7,39.9C51.1,39.9 54.6,40.2 58.3,40.7C62,41.2 65.8,42 69.8,42.9L69.8,35.6C69.8,28 68.2,22.7 65.1,19.6C61.9,16.5 56.5,15 48.8,15C45.3,15 41.7,15.4 38,16.3C34.3,17.2 30.7,18.3 27.2,19.7C25.6,20.4 24.4,20.8 23.7,21C23,21.2 22.5,21.3 22.1,21.3C20.7,21.3 20,20.3 20,18.2L20,13.3C20,11.7 20.2,10.5 20.7,9.8C21.2,9.1 22.1,8.4 23.5,7.7C27,5.9 31.2,4.4 36.1,3.2C41,1.9 46.2,1.3 51.7,1.3C63.6,1.3 72.3,4 77.9,9.4C83.4,14.8 86.2,23 86.2,34L86.2,66.4L86.4,66.4ZM45.8,81.6C49.1,81.6 52.5,81 56.1,79.8C59.7,78.6 62.9,76.4 65.6,73.4C67.2,71.5 68.4,69.4 69,67C69.6,64.6 70,61.7 70,58.3L70,54.1C67.1,53.4 64,52.8 60.8,52.4C57.6,52 54.5,51.8 51.4,51.8C44.7,51.8 39.8,53.1 36.5,55.8C33.2,58.5 31.6,62.3 31.6,67.3C31.6,72 32.8,75.5 35.3,77.9C37.7,80.4 41.2,81.6 45.8,81.6ZM126.1,92.4C124.3,92.4 123.1,92.1 122.3,91.4C121.5,90.8 120.8,89.4 120.2,87.5L96.7,10.2C96.1,8.2 95.8,6.9 95.8,6.2C95.8,4.6 96.6,3.7 98.2,3.7L108,3.7C109.9,3.7 111.2,4 111.9,4.7C112.7,5.3 113.3,6.7 113.9,8.6L130.7,74.8L146.3,8.6C146.8,6.6 147.4,5.3 148.2,4.7C149,4.1 150.4,3.7 152.2,3.7L160.2,3.7C162.1,3.7 163.4,4 164.2,4.7C165,5.3 165.7,6.7 166.1,8.6L181.9,75.6L199.2,8.6C199.8,6.6 200.5,5.3 201.2,4.7C202,4.1 203.3,3.7 205.1,3.7L214.4,3.7C216,3.7 216.9,4.5 216.9,6.2C216.9,6.7 216.8,7.2 216.7,7.8C216.6,8.4 216.4,9.2 216,10.3L191.9,87.6C191.3,89.6 190.6,90.9 189.8,91.5C189,92.1 187.7,92.5 186,92.5L177.4,92.5C175.5,92.5 174.2,92.2 173.4,91.5C172.6,90.8 171.9,89.5 171.5,87.5L156,23L140.6,87.4C140.1,89.4 139.5,90.7 138.7,91.4C137.9,92.1 136.5,92.4 134.7,92.4L126.1,92.4ZM254.6,95.1C249.4,95.1 244.2,94.5 239.2,93.3C234.2,92.1 230.3,90.8 227.7,89.3C226.1,88.4 225,87.4 224.6,86.5C224.2,85.6 224,84.6 224,83.7L224,78.6C224,76.5 224.8,75.5 226.3,75.5C226.9,75.5 227.5,75.6 228.1,75.8C228.7,76 229.6,76.4 230.6,76.8C234,78.3 237.7,79.5 241.6,80.3C245.6,81.1 249.5,81.5 253.5,81.5C259.8,81.5 264.7,80.4 268.1,78.2C271.5,76 273.3,72.8 273.3,68.7C273.3,65.9 272.4,63.6 270.6,61.7C268.8,59.8 265.4,58.1 260.5,56.5L246,52C238.7,49.7 233.3,46.3 230,41.8C226.7,37.4 225,32.5 225,27.3C225,23.1 225.9,19.4 227.7,16.2C229.5,13 231.9,10.2 234.9,8C237.9,5.7 241.3,4 245.3,2.8C249.3,1.6 253.5,1.1 257.9,1.1C260.1,1.1 262.4,1.2 264.6,1.5C266.9,1.8 269,2.2 271.1,2.6C273.1,3.1 275,3.6 276.8,4.2C278.6,4.8 280,5.4 281,6C282.4,6.8 283.4,7.6 284,8.5C284.6,9.3 284.9,10.4 284.9,11.8L284.9,16.5C284.9,18.6 284.1,19.7 282.6,19.7C281.8,19.7 280.5,19.3 278.8,18.5C273.1,15.9 266.7,14.6 259.6,14.6C253.9,14.6 249.4,15.5 246.3,17.4C243.2,19.3 241.6,22.2 241.6,26.3C241.6,29.1 242.6,31.5 244.6,33.4C246.6,35.3 250.3,37.2 255.6,38.9L269.8,43.4C277,45.7 282.2,48.9 285.3,53C288.4,57.1 289.9,61.8 289.9,67C289.9,71.3 289,75.2 287.3,78.6C285.5,82 283.1,85 280,87.4C276.9,89.9 273.2,91.7 268.9,93C264.4,94.4 259.7,95.1 254.6,95.1Z" style="fill:white;fill-rule:nonzero;"/>
    </g>
    <g transform="matrix(4.13625,0,0,4.13625,571.276,423.601)">
        <path d="M273.5,143.7C240.6,168 192.8,180.9 151.7,180.9C94.1,180.9 42.2,159.6 3,124.2C-0.1,121.4 2.7,117.6 6.4,119.8C48.8,144.4 101.1,159.3 155.2,159.3C191.7,159.3 231.8,151.7 268.7,136.1C274.2,133.6 278.9,139.7 273.5,143.7Z" style="fill:rgb(255,153,0);"/>
        <path d="M287.2,128.1C283,122.7 259.4,125.5 248.7,126.8C245.5,127.2 245,124.4 247.9,122.3C266.7,109.1 297.6,112.9 301.2,117.3C304.8,121.8 300.2,152.7 282.6,167.5C279.9,169.8 277.3,168.6 278.5,165.6C282.5,155.7 291.4,133.4 287.2,128.1Z" style="fill:rgb(255,153,0);"/>
    </g>
</svg>
